svgs/sharp-regular/gas-pump.svg

<svg xmlns="http://www.w3.org/2000/svg" viewBox="0 0 512 512"><!--! Font Awesome Pro 6.6.0 by @fontawesome - https://fontawesome.com License - https://fontawesome.com/license (Commercial License) Copyright 2024 Fonticons, Inc. --><path d="M272 48l0 144L80 192 80 48l192 0zm0 192l0 224L80 464l0-224 192 0zM32 48l0 416L0 464l0 48 32 0 48 0 192 0 48 0 32 0 0-48-32 0 0-160 8 0c22.1 0 40 17.9 40 40l0 32c0 39.8 32.2 72 72 72s72-32.2 72-72l0-240 0-9.9-7-7L417 31 383 65l33 33 0 62.1c0 29.8 20.4 54.9 48 62l0 154c0 13.3-10.7 24-24 24s-24-10.7-24-24l0-32c0-48.6-39.4-88-88-88l-8 0 0-208 0-48L272 0 80 0 32 0l0 48z"/></svg>

<svg xmlns="http://www.w3.org/2000/svg" viewBox="0 0 512 512"><!--! Font Awesome Pro 6.4.2 by @fontawesome - https://fontawesome.com License - https://fontawesome.com/license (Commercial License) Copyright 2023 Fonticons, Inc. --><path d="M272 48V192H80V48H272zm0 192V464H80l0-224H272zM32 48V464L0 464v48H32 80 272h48 32V464l-32 0V304h8c22.1 0 40 17.9 40 40v32c0 39.8 32.2 72 72 72s72-32.2 72-72V136v-9.9l-7-7L417 31l-17-17L366.1 48l17 17 33 33V160c0 29.8 20.4 54.9 48 62V376c0 13.3-10.7 24-24 24s-24-10.7-24-24V344c0-48.6-39.4-88-88-88h-8V48 0H272 80 32V48z"/></svg>
